X: 305700
M: 2/4
L: 1/16
K: G
c2c2A2A2 | dedc B2AB | A2a2a2g2 | f2d2"^D.C."d2 |]
E2E2G2G2 | F2F2 B4 | A2G2F2E2 | ^DEF=D B,2B,2 |\


